X:1
T:The Gods have heard
T:The Gods have heard
T:Thomas Weelkes
C:Thomas Weelkes
%%score [ 1 2 3 ]
L:1/8
Q:1/4=120
M:4/4
K:C
V:1 treble-8 nm="T1"
V:2 treble-8 nm="T2"
V:3 bass nm="B"
V:1
 z2 d2 e2 d2 | c2 B2 (A4 | A2) f2 e4 | d2 d2 g4 | ^f2 d2 e3 e | d2 c2 B4 | z2 c2 A4 | z2 d2 B4 | %8
w: 1.The Gods have|heard my vows,|_ fond Ly-|ce whose fair|brows won't scorn with|such dis- dain,|my love,|my love,|
w: 2.But now those|spring- time ro-|ses are turn'd|to win- ter|poses, to rue and|thyme and sage|to rue,|to thyme|
w: 3.Now youths with|hot de- sire|_ see, see|that flame- less|fire which erst your|hearts so burn'd|so burn'd|so burn'd|
 c4 (d4 | d4) (c4 | c4) B4 | (c8 | c4) (B4 | B4) (A4 | A4) (G4 | G4) ^F4 | G8 | z2 c2 dcBA | %18
w: my tears,|_ my||pain,|_ my|_ tears,|_ my||pain,|Fa la la la la|
w: and sage|_ fit-||ting,|_ fit-|* ting|_ that|_ shrivell'd|age.|Fa la la la la|
w: quick in-|* to|_ ash-|||||* es|turn'd.|Fa la la la la|
 G2 G4 ^F2 | G8 |] %20
w: la fa la|la.|
w: la fa la|la.|
w: la fa la|la.|
V:2
 z2 B2 c2 B2 | A2 G2 (^F4 | F2) d2 ^c4 | d2 B4 ^c2 | d2 B2 G3 A | B2 A4 ^G2 | A4 z2 d2 | B4 z2 g2 | %8
w: 1.The Gods have|heard my vows,|_ fond Ly-|ce whose fair|brows won't scorn with|such _ dis-|dain, my|love, my|
w: 2.But now those|spring- time ro-|ses are turn'd|to win- ter|poses, to rue and|thyme _ and|sage to|rue, to|
w: 3.Now youths with|hot de- sire|_ see, see|that flame- less|fire which erst your|hearts _ so|burn'd so|burn'd so|
 e4 (f4 | f4) e4 | d8 | (e8 | e4) (d4 | d4) (c4 | c4) B4 | A8 | B8 | z2 e2 fedc | B2 B2 A4 | B8 |] %20
w: love, my|_ tears,|my|pain,|_ my|_ tears,|_ my||pain,|Fa la la la la|la fa la|la.|
w: thyme and|_ sage|fit-|ting,|_ fit-|* ting|_ that|shrivell'd|age.|Fa la la la la|la fa la|la.|
w: burn'd quick|_ in-|to|ash-||||es|turn'd.|Fa la la la la|la fa la|la.|
V:3
 z2 G,2 C,2 G,,2 | A,,2 B,,C, (D,4 | D,2) D,2 A,,4 | D,2 G,2 E,4 | D,2 G,2 C,3 C, | G,,2 A,,2 E,4 | %6
w: 1.The Gods have|heard my _ vows,|_ fond Ly-|ce whose fair|brows won't scorn with|such dis- dain,|
w: 2.But now those|spring- time _ ro-|ses are turn'd|to win- ter|poses, to rue and|thyme and sage|
w: 3.Now youths with|hot de- * sire|_ see, see|that flame- less|fire which erst your|hearts so burn'd|
 z2 A,,2 D,4 | z2 G,,2 G,4 | C,4 F,4 | (G,8 | G,8) | C,8 | G,,8 | C,8 | (D,8 | D,8) | %16
w: my love,|my love,|my tears,|my|_|pain,|my|tears,|my||
w: to rue,|to thyme|and sage|fit-||ting,|fit-|ting|that|shrivell'd|
w: so burn'd|so burn'd|quick in-|to|_|ash-||||es|
 G,,2 G,,2 G,F,E,D, | C,2 A,,2 D,4 | E,2 G,2 D,4 | G,,8 |] %20
w: pain, Fa la la la la|la la la|fa la la|la.|
w: age. Fa la la la la|la la la|fa la la|la.|
w: turn'd. Fa la la la la|la la la|fa la la|la.|

